X: 3
T: Martin Wynne's
R: reel
M: 4/4
L: 1/8
K: Dmaj
DE | FBAF E2FE | DB,B,2 DB,A,2 | B,EE2 FEDE | FABc dcBA |
FBAF E2FE | DB,B,2 DB,A,2 | B,EE2 FEDE | FBBA B2 ||
AG | FBAF A2dA | B/c/deg fdde | ffaf egfe | dBAd B2AG |
FBAF A2dA | B/c/deg fddf | bfaf egfe | dBAd B2 ||


Tune 359	Setting 24221

